!!!OTL: Ritter und Magd 'Ach junckfraw, wolt jr mit mir gan?
!!!ARE: Europa, Mitteleuropa, Deutschland
!!!YOR: 3, S. 54
!!    1549 gedruckt in Nuernberg; vom Hg. vereinfachte Fassung
!!!SCT: Q1055N
!!!YEM: Copyright 1995, estate of Helmut Schaffrath.
**kern
*ICvox
*Ivox
!! Mixed meters:  6/4; 4/4
*M6/4
*k[b-]
*F:
{4f
4f
4g
=1
2a
4b-
2cc
4a
=2
4f}
{2ff
4ff
4ff
4ff
=3
*M4/4
4ee
4cc
2dd
=4
*M6/4
4cc
4r}
{4f
2cc
4ff
=5
4ee
4cc
4dd
2cc
4cc
=6
*M4/4
4a}
{4dd
4.cc
8b-
=7
4a
4f
2g
=8
4f}
==
!!!AGN: ???
!! Melodievergleich zu Q0055C, anderes Lied. Vereinfachte Fassung von
!!    Q0024D (Band 1, S. 271) .
!!!ONB: ESAC (Essen Associative Code) Database: BALLADE
!!!AMT: irregular
!!!AIN: vox
!!!EED: Helmut Schaffrath
!!!EEV: 1.0
*-
